assets/images/battle_design.svg

<svg xmlns="http://www.w3.org/2000/svg" width="375" height="518.1" viewBox="0 0 375 518.1"><g fill="#fff" opacity=".1"><path d="m277.91.001-86.06 267.23-.01.03.01-.08L243.08.001Zm80.01 0-11.23 18.09-154.73 249.13-.05.07L315.63.121l.06-.12ZM375 128.631v32.38l-183.07 106.34Zm-171.35 353.67q-8.265-.51-16.57-.51-4.845 0-9.68.18l1.36-20.17 13.04-193.86.01-.18v-.15l.01.21Zm-11.91-214.87-.26.11L0 349.441v-26.48l191.6-55.49Zm.04-.06L0 201.931v-27.45l173.14 83.89Zm-.02-.05L0 143.531v-36.26Zm-.01-.03L0 62.781V4.911l17.76 24.3Zm.06.04-61.04-109.41-81.86-146.72-6.24-11.2h40.29Zm0-.04L119.44.001h34.11Zm-.07.21-.13.16L5.63 498.621 0 505.611v-51.96l191.66-186.08Zm.04-.13L0 251.111v-23.95l120.23 25.22Z"/><path d="M251.88 488.751c-9.46-1.92-19.16-3.53-29-4.71l-31.04-216.47v.15l-.02.1-.02.12-41.5 216.23c-10.15 1.25-20.14 2.95-29.85 4.98l71.38-221.68-.05.05-106.77 230.57c-17.6 5.19-33.46 10.96-46.58 16.24l153.18-246.67.05-.09.05-.07L0 412.741v-33.94l191.48-111.26.12-.07.14-.08L0 298.271v-23.7l69.85-2.62 121.93-4.58h.14l.01.02v.01l.01.06.01.01.05.18.01.04.07.29.1.35Z"/><path d="M327.61 510.961c-12.43-4.72-26.76-9.65-42.35-14.07l-93.08-228.56-.27-.67.17.32ZM209.83.001l-17.98 267.18v.05l-.01.12v-.09L177.1.001ZM375 462.811v55.29l-9.09-12.45-173.9-237.96-.1-.13.09.09Zm0-77.14v34.58l-183.05-152.78Zm0-55.73v26.2l-85.63-41.48-97.42-47.19 141.34 48.23Zm0-47.02v22.91l-118.94-24.97-64.13-13.46Zm0-45.04v22.63l-171.21 6.42-11.8.46.17-.08Zm-182.79 29.41L375 189.101v25.25ZM375 39.931v49.64l-183.09 177.77h-.04l.04-.05.05-.07Z"/><path d="m191.83 267.291.01-.03v.01Zm0 .18.08.19-.08-.14Z"/></g></svg>

<svg xmlns="http://www.w3.org/2000/svg" width="375" height="518.1" viewBox="0 0 375 518.1">
  <g id="battle_design" transform="translate(0 1.837)" opacity="0.1">
    <path id="Path_14574" data-name="Path 14574" d="M277.91,0,191.85,267.23l-.01.03.01-.08L243.08,0Z" transform="translate(0 -1.837)" fill="#fff"/>
    <path id="Path_14575" data-name="Path 14575" d="M357.92,0,346.69,18.09,191.96,267.22l-.05.07L315.63.12l.06-.12Z" transform="translate(0 -1.837)" fill="#fff"/>
    <path id="Path_14576" data-name="Path 14576" d="M375,128.63v32.38L191.93,267.35Z" transform="translate(0 -1.837)" fill="#fff"/>
    <path id="Path_14577" data-name="Path 14577" d="M203.65,482.3q-8.265-.51-16.57-.51-4.845,0-9.68.18l1.36-20.17L191.8,267.94l.01-.18v-.15l.01.21Z" transform="translate(0 -1.837)" fill="#fff"/>
    <path id="Path_14578" data-name="Path 14578" d="M191.74,267.43l-.26.11L0,349.44V322.96l191.6-55.49Z" transform="translate(0 -1.837)" fill="#fff"/>
    <path id="Path_14579" data-name="Path 14579" d="M191.78,267.37,0,201.93V174.48l173.14,83.89Z" transform="translate(0 -1.837)" fill="#fff"/>
    <path id="Path_14580" data-name="Path 14580" d="M191.76,267.32,0,143.53V107.27Z" transform="translate(0 -1.837)" fill="#fff"/>
    <path id="Path_14581" data-name="Path 14581" d="M191.75,267.29,0,62.78V4.91l17.76,24.3Z" transform="translate(0 -1.837)" fill="#fff"/>
    <path id="Path_14582" data-name="Path 14582" d="M191.81,267.33,130.77,157.92,48.91,11.2,42.67,0H82.96Z" transform="translate(0 -1.837)" fill="#fff"/>
    <path id="Path_14583" data-name="Path 14583" d="M191.81,267.29,119.44,0h34.11Z" transform="translate(0 -1.837)" fill="#fff"/>
    <path id="Path_14584" data-name="Path 14584" d="M191.74,267.5l-.13.16L5.63,498.62,0,505.61V453.65L191.66,267.57Z" transform="translate(0 -1.837)" fill="#fff"/>
    <path id="Path_14585" data-name="Path 14585" d="M191.78,267.37,0,251.11V227.16l120.23,25.22Z" transform="translate(0 -1.837)" fill="#fff"/>
    <path id="Path_14586" data-name="Path 14586" d="M251.88,488.75c-9.46-1.92-19.16-3.53-29-4.71L191.84,267.57v.15l-.02.1-.02.12L150.3,484.17c-10.15,1.25-20.14,2.95-29.85,4.98l71.38-221.68-.05.05L85.01,498.09c-17.6,5.19-33.46,10.96-46.58,16.24L191.61,267.66l.05-.09.05-.07L0,412.74V378.8L191.48,267.54l.12-.07.14-.08L0,298.27v-23.7l69.85-2.62,121.93-4.58h.14l.01.02v.01l.01.06.01.01.05.18.01.04.07.29.1.35Z" transform="translate(0 -1.837)" fill="#fff"/>
    <path id="Path_14588" data-name="Path 14588" d="M327.61,510.96c-12.43-4.72-26.76-9.65-42.35-14.07L192.18,268.33l-.27-.67.17.32Z" transform="translate(0 -1.837)" fill="#fff"/>
    <path id="Path_14589" data-name="Path 14589" d="M209.83,0,191.85,267.18v.05l-.01.12v-.09L177.1,0Z" transform="translate(0 -1.837)" fill="#fff"/>
    <path id="Path_14590" data-name="Path 14590" d="M375,462.81V518.1l-9.09-12.45L192.01,267.69l-.1-.13.09.09Z" transform="translate(0 -1.837)" fill="#fff"/>
    <path id="Path_14591" data-name="Path 14591" d="M375,385.67v34.58L191.95,267.47Z" transform="translate(0 -1.837)" fill="#fff"/>
    <path id="Path_14592" data-name="Path 14592" d="M375,329.94v26.2l-85.63-41.48-97.42-47.19L333.29,315.7Z" transform="translate(0 -1.837)" fill="#fff"/>
    <path id="Path_14593" data-name="Path 14593" d="M375,282.92v22.91L256.06,280.86,191.93,267.4Z" transform="translate(0 -1.837)" fill="#fff"/>
    <path id="Path_14594" data-name="Path 14594" d="M375,237.88v22.63l-171.21,6.42-11.8.46.17-.08Z" transform="translate(0 -1.837)" fill="#fff"/>
    <path id="Path_14595" data-name="Path 14595" d="M192.21,267.29,375,189.1v25.25Z" transform="translate(0 -1.837)" fill="#fff"/>
    <path id="Path_14596" data-name="Path 14596" d="M375,39.93V89.57L191.91,267.34h-.04l.04-.05.05-.07Z" transform="translate(0 -1.837)" fill="#fff"/>
    <path id="Path_14573" data-name="Path 14573" d="M191.83,267.29l.01-.03v.01Z" transform="translate(0 -1.837)" fill="#fff"/>
    <path id="Path_14587" data-name="Path 14587" d="M191.83,267.47l.08.19-.08-.14Z" transform="translate(0 -1.837)" fill="#fff"/>
  </g>
</svg>
